!!!OTL: ES WAR EIN BRAVER JUNG FISCHERGESELL
!!!ARE: Europa, Mitteleuropa, Deutschland, Oderberg, Hohen - Saathen
!!!SCT: E0129B
!!!YEM: Copyright 1995, estate of Helmut Schaffrath.
**kern
*ICvox
*Ivox
*M6/8
*k[]
*a:
{8e
=1
4ee
8dd
8.ccn
16dd
8b
=2
8.a
16b
8a
16gn
16f#
8e}
{8e
=3
4a
8b
8ccn
8ee
16dd
16ccn
=4
4.b
4r}
{8b
=5
8.ee
16ee
8dd
8.dd
16ccn
8b
=6
4ccn
8dd
4ee}
{8dd
=7
8.ee
16ffn
8ee
8.ee
16dd
8b
=8
4.a
4r}
==
!!!AGN: erzaehlendes Volks - Lied, Schalk -, Schelmen - Lied, Liebe; Handwerk     Ballade ?
!!!ONB: ESAC (Essen Associative Code) Database: ERK1
!!!AMT: compound duple
!!!AIN: vox
!!!EED: Helmut Schaffrath
!!!EEV: 1.0
*-
!!!title: @{OTL} [@{SCT}]
